X:1
T:Title
%%score { ( 1 3 ) | ( 2 4 ) }
L:1/8
M:4/4
K:Bb
V:1 treble nm="Grand Piano"
V:3 treble 
V:2 bass 
V:4 bass 
V:1
 z4 z2[Q:1/4=100] DE | F2 z2 F2 z2 | G2 z2 G2 z2 | A2 z2 A2 z2 | F6 z2 | F2 z2 F2 z2 | G2 z2 c4 | %7
 A2 z2 B2 z2 | z BAA _A2 [Ge]2 | .d2 AB [=Ec]2 [EG][EG] | [Ec]6 z2 | %11
 [DF]2 [DF][DF] [DF]2 [D=E][DF] | G6 z2 | A2 AA AAGA | F6 z2 | [Fd]2 [=E_d][F=d] [DB]2 [DF][DF] | %16
 G2 ^FG [=Ec]3 [EB] | AG F2 FG A2 |[M:3/4] B2- [EB-]2 [DB]2 |] %19
V:2
 z4 z2 B,,C, | z B, z [A,CE] z B, z [B,D] | z B, z [=B,DF] z C z [CE] | z C z [CE] z CG,,A,, | %4
 z B, z A, z B,B,,C, | z B, z [A,CE] z B, z [B,D] | z B, z [=B,DF] z C .[C,C]2 | %7
 z C z [CE] z C z [CF] | [B,,B,]6 [E,B,]2 | .[F,B,F]2 CD [C,G,]2 [C,C][C,C] | [F,A,]6 z2 | %11
 [B,,B,]2 [B,,B,][B,,B,] [B,,B,]2 [B,,B,][B,,B,] | [E,B,E]2 [D,=B,][D,B,] [C,C]2 z2 | %13
 [F,CE]2 [F,CE][F,CE] [F,CE][F,CE][F,B,E][F,CE] | [B,,B,]2 [C,A,][C,A,] [B,,B,]2 z2 | %15
 [B,,B,]2 [B,,B,][B,,B,] [B,,B,]2 [B,,B,][B,,B,] | [E,B,E]2 [E,A,E][E,B,E] [C,C]3 [C,C] | %17
 [F,CE][F,B,E] [F,A,E]2 [F,A,E][F,B,E] [F,CE]2 |[M:3/4] z2 G,2 F,2 |] %19
V:3
 x8 | z DFF z DEF | z EGG z E^FG | z EAA z EB[CEc] | z D z [CE] z DDE | z DFF z D=EF | %6
 z EGG z =EEB | z EAA z =Ecc | [Dd]6 z2 | x8 | x8 | x8 | z2 FF E2 z2 | x8 | D2 EE D2 z2 | x8 | x8 | %17
 x8 |[M:3/4] [B,D]2 z2 z2 |] %19
V:4
 x8 | D,2 C,2 B,,2 B,,2 | E,2 D,2 C,2 C,2 | [F,,F,]4 F,,2 z2 | B,,2 C,2 B,,2 z2 | %5
 D,2 C,2 B,,2 B,,2 | E,2 D,2 C,2 z2 | [F,,F,]4 [G,,G,]2 [A,,A,]2 | x8 | x8 | x8 | x8 | x8 | x8 | %14
 x8 | x8 | x8 | x8 |[M:3/4] B,,6 |] %19

